X: 1
T: Gärdebylåten
R: Hornpipe
M: 4/4
L: 1/8
K: Dmaj
|:FG|ABAF ABAF|A2fe d2c2|BdBG BdBG | B2gf e2d2|
c3d c2B2|A2g2 f2e2|1 dcde fefg|a4 a2 :| 2 d2fd Acec | d4 d2 fg ||
|: a2a2 fdfa | b2a2 g2f2 | g3B B3 g | g2f2 e2d2 |
c3d c2B2|A2g2 f2e2|1 dcde fefg | a4 a2 fg :| 2 d2fd Acec | d4 d2 fg ||
